X:86
T: Siji dushu ge
N: C0108
O: China, Hubei, Hongan
S: I, 407]
N: neues Volkslied. Die Melodie wurde aber schon in der Ming-Dynastie
N: gesungen.
N: Vereinzelt Verzierungen.
R: Xiaodiao, Yuelang diao. Geming lishi minge]
M: 2/4
L: 1/16
K: G
e4d2B2 | e4d2B2 | A2A2BdBA | G8
d4E2D2 | G3ABABd | A8
e4d2B2 | e4d2B2 | A2A2BdBA | G6
E2 | G2G2G2E2 | d2deB2A2 | G2GABABd | A8
B2G2A2A2 | GABdA4 | E2DEAGE2 | D8

